assets/images/icon-linkedin.svg

<svg width="35" height="35" viewBox="0 0 35 35" fill="none" xmlns="http://www.w3.org/2000/svg">
<path fill-rule="evenodd" clip-rule="evenodd" d="M17.5 0C7.83651 0 0 7.83651 0 17.5C0 27.1635 7.83651 35 17.5 35C27.1635 35 35 27.1635 35 17.5C35 7.83651 27.1635 0 17.5 0ZM8.15268 26.4551H12.4147V13.6326H8.15268V26.4551ZM10.2838 11.8817H10.256C8.82581 11.8817 7.90084 10.8972 7.90084 9.6667C7.90084 8.40848 8.85411 7.45117 10.3122 7.45117C11.7701 7.45117 12.6673 8.40848 12.6951 9.6667C12.6951 10.8972 11.7701 11.8817 10.2838 11.8817ZM27.7828 26.4551H23.5212V19.5954C23.5212 17.8715 22.9042 16.6957 21.362 16.6957C20.1847 16.6957 19.4835 17.4888 19.1753 18.2543C19.0626 18.5283 19.0351 18.9113 19.0351 19.2944V26.4551H14.7733C14.7733 26.4551 14.8292 14.8356 14.7733 13.6326H19.0351V15.4481C19.6015 14.5744 20.6149 13.3317 22.8761 13.3317C25.6802 13.3317 27.7828 15.1643 27.7828 19.1027V26.4551Z" fill="#E0E0E0"/>
</svg>

<svg xmlns="http://www.w3.org/2000/svg" width="35" height="35" viewBox="0 0 35 35">
    <path fill="#CFCFCF" fill-rule="evenodd" d="M17.5 0C7.837 0 0 7.837 0 17.5S7.837 35 17.5 35 35 27.163 35 17.5 27.163 0 17.5 0zM8.153 26.455h4.262V13.633H8.153v12.822zm2.13-14.573h-.027c-1.43 0-2.355-.985-2.355-2.215 0-1.259.953-2.216 2.411-2.216 1.458 0 2.355.957 2.383 2.216 0 1.23-.925 2.215-2.411 2.215zm17.5 14.573H23.52v-6.86c0-1.724-.617-2.9-2.159-2.9-1.177 0-1.878.794-2.187 1.56-.112.273-.14.656-.14 1.04v7.16h-4.262s.056-11.62 0-12.822h4.262v1.815c.567-.874 1.58-2.116 3.841-2.116 2.804 0 4.907 1.832 4.907 5.77v7.353z"/>
</svg>
